X:1
T:Title
%%score ( 1 2 ) ( 3 4 )
L:1/8
Q:1/4=90
M:4/4
K:F
V:1 treble nm="Grand Piano, Soprano"
V:2 treble 
V:3 bass nm="Choir Pad, Meet Me There (Dale)"
V:4 bass 
V:1
 [CF]>[CG] [FA]>[FA] [FA]>[FA] [FA]2 | [FA]>[GB] [Ac]>[Ac] [Ac]>[Ac] [Ac]2 | %2
w: By~S.~L.~Howard * * * * * *||
 [GB]>[FA] [EG]>[EG] [EG]>[FA] [GB]2 | [Ed]>[Ed] c4 A2 | [CF]>[CG] [FA]>[FA] [FA]>[FA] [FA]2 | %5
w: |||
 [FA]>[GB] [Ac]>[Ac] [Ac]>[Ac] [Ac]2 | [GB]>[FA] [EG]>[EG] [EG]>[FA] [GB]2 | [FA]>[EG] F2 D>D C2 | %8
w: |||
 [FA]>[GB] [Ac]6 | (3[df][ce][Bd] [Ac]6 | [GB]>[FA] [EG]>[EG] [EG]>[FA] [GB]>[GB] | %11
w: |||
 [Bd]>[Bd] [Ac]4 [FA]2 | [CF]>[CG] [FA]>[FA] [FA]>[FA] [FA]2 | %13
w: ||
 [FA]>[GB] [Ac]>[Ac] [Ac]>[Ac] [Ac]2 | [GB]>[FA] [EG]>[EG] [EG]>[FA] [GB]2 | [FA]>[EG] F2 D>D C2 |] %16
w: |||
V:2
 x8 | x8 | x8 | z2 F6 | x8 | x8 | x8 | x8 | x8 | x8 | x8 | x8 | x8 | x8 | x8 | x8 |] %16
V:3
 [F,A,]>[F,B,] [F,C]>[F,C] [F,C]>[F,C] [F,C]2 | [F,C]>[F,C] [F,F]>[F,F] [F,F]>[F,F] [F,C]2 | %2
 [E,C]>[F,C] [C,C]>[C,C] [C,C]>[C,C] [C,C]2 | z2 A,4 z2 | %4
 [F,A,]>[G,B,] [F,C]>[F,C] [F,C]>[F,C] [F,C]2 | [F,C]>[F,C] [F,F]>[F,F] [F,F]>[F,F] [F,C]2 | %6
 [E,C]>[F,C] [C,C]>[C,C] [C,C]>[C,C] [C,C]2 | z2 A,2 z4 | z4 [F,C]>[F,C] [F,C]2 | %9
 z4 [F,F]>[F,F] [F,C]2 | [E,C]>[F,C] [C,C]>[C,C] [C,C]>[C,C] [C,C]>[C,C] | %11
 [C,C]>[C,C] z2 [F,C]>[F,C] [F,C]2 | [F,A,]>[G,B,] [F,C]>[F,C] [F,C]>[F,C] [F,C]2 | %13
 [F,C]>[F,C] [F,F]>[F,F] [F,F]>[F,F] [F,C]2 | [E,C]>[F,C] [C,C]>[C,C] [C,C]>[C,C] [C,C]2 | %15
 z2 A,2 z4 |] %16
V:4
 x8 | x8 | x8 | [C,B,]>[C,B,] F,4- [F,C]2 | x8 | x8 | x8 | %7
 [C,C]>[C,B,] F,2- [F,-B,]>[F,-B,] [F,A,]2 | x8 | x8 | x8 | x8 | x8 | x8 | x8 | %15
 [C,C]>[C,B,] F,2- [F,-B,]>[F,-B,] [F,A,]2 |] %16

